app/images/icons/confirm.svg

<svg fill="none" height="5" viewBox="0 0 7 5" width="7" xmlns="http://www.w3.org/2000/svg"><path clip-rule="evenodd" d="m5.97989.212475c.29348.2833.29348.74262 0 1.025915l-3.81928 3.68674-1.940496-1.87315c-.2934852-.2833-.2934852-.74262 0-1.02592.293485-.2833.769318-.2833 1.062806 0l.87769.84723 2.75647-2.660815c.29349-.2833.76932-.2833 1.06281 0z" fill="#fff" fill-rule="evenodd"/></svg>

<svg width="7" height="5" viewBox="0 0 7 5" fill="none" xmlns="http://www.w3.org/2000/svg">
<path fill-rule="evenodd" clip-rule="evenodd" d="M5.97989 0.212475C6.27337 0.495775 6.27337 0.955095 5.97989 1.23839L2.16061 4.92513L0.220114 3.05198C-0.0733712 2.76868 -0.0733712 2.30936 0.220114 2.02606C0.513599 1.74276 0.989432 1.74276 1.28292 2.02606L2.16061 2.87329L4.91708 0.212475C5.21057 -0.070825 5.6864 -0.070825 5.97989 0.212475Z" fill="white"/>
</svg>
